svg/600/outlined/tap_and_play.svg

<svg xmlns="http://www.w3.org/2000/svg" width="48" height="48" viewBox="0 -960 960 960"><path d="M186.999-481.999v-371.783q0-32.507 23.356-55.863t55.863-23.356h427.564q32.507 0 55.863 23.356t23.356 55.863v747.564q0 32.664-23.278 55.941-23.277 23.278-55.941 23.278v-736.783H266.218v281.783h-79.219Zm0 455v-161.783q67.459 0 114.621 47.162Q348.782-94.458 348.782-27H186.999Zm215 0q0-90-62.5-152.5t-152.5-62.5v-66.783q116.845 0 199.314 82.375t82.469 199.408h-66.783Zm120 0q0-139.435-97.642-237.218-97.642-97.782-237.358-97.782v-66.783q83.227 0 156.306 31.776 73.08 31.776 127.506 86.209 54.427 54.433 86.199 127.549 31.772 73.116 31.772 156.249h-66.783ZM266.218-823.782h427.564v-30H266.218v30Zm0 0v-30 30Z"/></svg>

<svg xmlns="http://www.w3.org/2000/svg" width="48" height="48" viewBox="0 -960 960 960"><path d="M187-482v-371.78q0-32.51 23.36-55.86Q233.71-933 266.22-933h427.56q32.51 0 55.86 23.36Q773-886.29 773-853.78v747.56q0 32.67-23.28 55.94Q726.45-27 693.78-27v-736.78H266.22V-482H187Zm0 455v-161.78q67.46 0 114.62 47.16Q348.78-94.46 348.78-27H187Zm215 0q0-90-62.5-152.5T187-242v-66.78q116.84 0 199.31 82.37Q468.78-144.03 468.78-27H402Zm120 0q0-139.43-97.64-237.22Q326.72-362 187-362v-66.78q83.23 0 156.31 31.77 73.07 31.78 127.5 86.21 54.43 54.44 86.2 127.55Q588.78-110.13 588.78-27H522ZM266.22-823.78h427.56v-30H266.22v30Zm0 0v-30 30Z"/></svg>
